website/static/img/icons/white/discussions.svg

<svg fill="none" height="27" viewBox="0 0 28 27" width="28" xmlns="http://www.w3.org/2000/svg"><path d="m14.426 25.65c0 .7456-.6044 1.35-1.35 1.35s-1.35-.6044-1.35-1.35v-1.35c0-2.9823 2.4177-5.4 5.4-5.4h5.4c1.4912 0 2.7-1.2088 2.7-2.7v-10.8c0-1.49117-1.2088-2.7-2.7-2.7h-16.19997c-1.49117 0-2.7 1.20883-2.7 2.7v10.8c0 1.4912 1.20883 2.7 2.7 2.7h1.35c.74558 0 1.35.6044 1.35 1.35s-.60442 1.35-1.35 1.35h-1.35c-2.98234 0-5.400005-2.4177-5.400005-5.4v-10.8c0-2.98234 2.417665-5.4 5.400005-5.4h16.19997c2.9824 0 5.4 2.41766 5.4 5.4v10.8c0 2.9823-2.4176 5.4-5.4 5.4h-5.4c-1.4911 0-2.7 1.2088-2.7 2.7zm0-13.5c-.7456 0-1.35-.6044-1.35-1.35s.6044-1.35 1.35-1.35 1.35.6044 1.35 1.35-.6044 1.35-1.35 1.35zm-5.39997 0c-.74559 0-1.35-.6044-1.35-1.35s.60441-1.35 1.35-1.35c.74558 0 1.34997.6044 1.34997 1.35s-.60439 1.35-1.34997 1.35zm10.79997 0c-.7456 0-1.35-.6044-1.35-1.35s.6044-1.35 1.35-1.35 1.35.6044 1.35 1.35-.6044 1.35-1.35 1.35z" fill="#fff"/></svg>

<svg width="28" height="27" viewBox="0 0 28 27" fill="none" xmlns="http://www.w3.org/2000/svg">
<path d="M14.426 25.65C14.426 26.3956 13.8216 27 13.076 27C12.3304 27 11.726 26.3956 11.726 25.65V24.3C11.726 21.3177 14.1437 18.9 17.126 18.9H22.526C24.0172 18.9 25.226 17.6912 25.226 16.2V5.4C25.226 3.90883 24.0172 2.7 22.526 2.7H6.32603C4.83486 2.7 3.62603 3.90883 3.62603 5.4V16.2C3.62603 17.6912 4.83486 18.9 6.32603 18.9H7.67603C8.42161 18.9 9.02603 19.5044 9.02603 20.25C9.02603 20.9956 8.42161 21.6 7.67603 21.6H6.32603C3.34369 21.6 0.926025 19.1823 0.926025 16.2V5.4C0.926025 2.41766 3.34369 0 6.32603 0H22.526C25.5084 0 27.926 2.41766 27.926 5.4V16.2C27.926 19.1823 25.5084 21.6 22.526 21.6H17.126C15.6349 21.6 14.426 22.8088 14.426 24.3V25.65ZM14.426 12.15C13.6804 12.15 13.076 11.5456 13.076 10.8C13.076 10.0544 13.6804 9.45 14.426 9.45C15.1716 9.45 15.776 10.0544 15.776 10.8C15.776 11.5456 15.1716 12.15 14.426 12.15ZM9.02603 12.15C8.28044 12.15 7.67603 11.5456 7.67603 10.8C7.67603 10.0544 8.28044 9.45 9.02603 9.45C9.77161 9.45 10.376 10.0544 10.376 10.8C10.376 11.5456 9.77161 12.15 9.02603 12.15ZM19.826 12.15C19.0804 12.15 18.476 11.5456 18.476 10.8C18.476 10.0544 19.0804 9.45 19.826 9.45C20.5716 9.45 21.176 10.0544 21.176 10.8C21.176 11.5456 20.5716 12.15 19.826 12.15Z" fill="white"/>
</svg>
